static/images/bg-image-2.svg

<svg width="1842" height="1746" fill="none" xmlns="http://www.w3.org/2000/svg"><g filter="url(#a)"><path d="M1303.79 762.68 902.793 1112.1c-13.102 11.42-32.449-3.3-24.941-18.98L987.9 863.397c5.088-10.621-2.654-22.913-14.43-22.913H780.89c-14.688 0-21.615-18.134-10.666-27.926l405.726-362.873c13.23-11.833 33.01 3.468 24.89 19.25l-124.77 242.359c-5.48 10.648 2.25 23.323 14.23 23.323h202.98c14.79 0 21.67 18.347 10.51 28.063Z" fill="#FDBE00"/></g><g filter="url(#b)"><path d="M1483.45 837.069 590.398 1392.66c-14.635 9.11-31.342-8.18-21.739-22.5l257.259-383.424c7.132-10.63-.486-24.914-13.286-24.914H366.785c-15.994 0-22.091-20.878-8.611-29.486l907.176-579.294c14.87-9.495 31.91 8.533 21.59 22.842L994.032 782.126c-7.63 10.582-.068 25.357 12.978 25.357h467.98c16.1 0 22.12 21.085 8.46 29.586Z" fill="#FFF75C"/></g><defs><filter id="a" x="664.857" y="345.482" width="744.458" height="870.674" filterUnits="userSpaceOnUse" color-interpolation-filters="sRGB"><feFlood flood-opacity="0" result="BackgroundImageFix"/><feBlend in="SourceGraphic" in2="BackgroundImageFix" result="shape"/><feGaussianBlur stdDeviation="50" result="effect1_foregroundBlur_233_9"/></filter><filter id="b" x=".756" y=".395" width="1840.27" height="1744.8" filterUnits="userSpaceOnUse" color-interpolation-filters="sRGB"><feFlood flood-opacity="0" result="BackgroundImageFix"/><feBlend in="SourceGraphic" in2="BackgroundImageFix" result="shape"/><feGaussianBlur stdDeviation="175" result="effect1_foregroundBlur_233_9"/></filter></defs></svg>

<svg width="1842" height="1746" viewBox="0 0 1842 1746" fill="none" xmlns="http://www.w3.org/2000/svg">
<g filter="url(#filter0_f_233_9)">
<path d="M1303.79 762.68L902.793 1112.1C889.691 1123.52 870.344 1108.8 877.852 1093.12L987.9 863.397C992.988 852.776 985.246 840.484 973.47 840.484H780.89C766.202 840.484 759.275 822.35 770.224 812.558L1175.95 449.685C1189.18 437.852 1208.96 453.153 1200.84 468.935L1076.07 711.294C1070.59 721.942 1078.32 734.617 1090.3 734.617H1293.28C1308.07 734.617 1314.95 752.964 1303.79 762.68Z" fill="#FDBE00"/>
</g>
<g filter="url(#filter1_f_233_9)">
<path d="M1483.45 837.069L590.398 1392.66C575.763 1401.77 559.056 1384.48 568.659 1370.16L825.918 986.736C833.05 976.106 825.432 961.822 812.632 961.822H366.785C350.791 961.822 344.694 940.944 358.174 932.336L1265.35 353.042C1280.22 343.547 1297.26 361.575 1286.94 375.884L994.032 782.126C986.402 792.708 993.964 807.483 1007.01 807.483H1474.99C1491.09 807.483 1497.11 828.568 1483.45 837.069Z" fill="#FFF75C"/>
</g>
<defs>
<filter id="filter0_f_233_9" x="664.857" y="345.482" width="744.458" height="870.674" filterUnits="userSpaceOnUse" color-interpolation-filters="sRGB">
<feFlood flood-opacity="0" result="BackgroundImageFix"/>
<feBlend mode="normal" in="SourceGraphic" in2="BackgroundImageFix" result="shape"/>
<feGaussianBlur stdDeviation="50" result="effect1_foregroundBlur_233_9"/>
</filter>
<filter id="filter1_f_233_9" x="0.755859" y="0.395386" width="1840.27" height="1744.8" filterUnits="userSpaceOnUse" color-interpolation-filters="sRGB">
<feFlood flood-opacity="0" result="BackgroundImageFix"/>
<feBlend mode="normal" in="SourceGraphic" in2="BackgroundImageFix" result="shape"/>
<feGaussianBlur stdDeviation="175" result="effect1_foregroundBlur_233_9"/>
</filter>
</defs>
</svg>
